X:464
T: "Altes Minnelied"
N: Z1144
O: Europa, Mitteleuropa, Deutschland
R: Liebes - Lied
M: 6/4
L: 1/4
K: F
C | F2FC2B | A2GF2
F | E2FG2C | E2DC2
C | F2GA2G | B2AG2
F | A2Bc2d | cAFG3
F3E2F | B3G3
A3G3 | F3-F2

